docs/img/stages-3.svg

<svg width="34" height="48" viewBox="0 0 34 48" fill="none" xmlns="http://www.w3.org/2000/svg">
<path d="M3.06453 8.30402L3.05824 8.30908L3.05254 8.31479C2.91388 8.45345 2.75076 8.68331 2.75076 8.93655V44.5194C2.75076 44.7468 2.82724 44.9481 2.97196 45.0928C3.11668 45.2375 3.3179 45.314 3.54537 45.314H29.8457C30.0732 45.314 30.2744 45.2375 30.4191 45.0928C30.5639 44.9481 30.6403 44.7468 30.6403 44.5194V8.93655C30.6403 8.82235 30.6211 8.72049 30.5791 8.62584C30.5373 8.53185 30.4763 8.45257 30.403 8.37925C30.3308 8.30704 27.2481 5.27413 22.3072 3.76508C17.3564 2.253 10.5516 2.2755 3.06453 8.30402ZM15.9009 43.7248H4.33999V32.2927H15.9009V43.7248ZM15.9009 30.7035H4.33999V18.9492H15.9009V30.7035ZM15.9009 17.3599H4.33999V9.33157C8.54919 6.01845 12.5031 4.7396 15.9009 4.51908V17.3599ZM29.0511 43.7248H17.4902V32.2927H29.0511V43.7248ZM29.0511 30.7035H17.4902V18.9492H29.0511V30.7035ZM29.0511 17.3599H17.4902V4.51511C23.6368 4.75892 28.009 8.36532 29.0511 9.32436V17.3599Z" fill="#212B31" stroke="#212B31" stroke-width="0.3"/>
<path d="M33.2622 6.55122C33.1333 6.4223 18.3071 -8.08157 0.257846 6.48676C0.128923 6.61568 0 6.80907 0 7.00245V47.3554C0 47.7422 0.257846 48.0001 0.644616 48.0001H32.811C33.1977 48.0001 33.4556 47.7422 33.4556 47.3554V7.00245C33.4556 6.80907 33.3911 6.68015 33.2622 6.55122ZM32.1664 46.7108H1.28923V7.32476C17.4691 -5.5031 30.3614 5.64876 32.1664 7.32476V46.7108Z" fill="#212B31"/>
<path d="M33.2622 6.55122C33.1333 6.4223 18.3071 -8.08157 0.257846 6.48676C0.128923 6.61568 0 6.80907 0 7.00245V47.3554C0 47.7422 0.257846 48.0001 0.644616 48.0001H32.811C33.1977 48.0001 33.4556 47.7422 33.4556 47.3554V7.00245C33.4556 6.80907 33.3911 6.68015 33.2622 6.55122ZM32.1664 46.7108H1.28923V7.32476C17.4691 -5.5031 30.3614 5.64876 32.1664 7.32476V46.7108Z" stroke="#212B31"/>
</svg>

<svg width="34" height="48" fill="none" xmlns="http://www.w3.org/2000/svg"><path d="m3.065 8.304-.007.005-.005.006c-.14.138-.302.368-.302.622v35.582c0 .228.076.43.221.574a.794.794 0 0 0 .573.221h26.3a.794.794 0 0 0 .574-.221.794.794 0 0 0 .221-.574V8.937a.751.751 0 0 0-.06-.311.82.82 0 0 0-.177-.247c-.072-.072-3.155-3.105-8.096-4.614-4.95-1.512-11.755-1.49-19.242 4.539ZM15.9 43.724H4.34V32.294H15.9v11.432Zm0-13.02H4.34V18.948H15.9v11.754Zm0-13.344H4.34V9.332C8.55 6.018 12.503 4.74 15.9 4.519v12.84Zm13.15 26.365h-11.56V32.293h11.56v11.432Zm0-13.022h-11.56V18.95h11.56v11.754Zm0-13.343h-11.56V4.515c6.146.244 10.518 3.85 11.56 4.81v8.035Z" fill="#212B31" stroke="#212B31" stroke-width=".3"/><path d="M33.262 6.551C33.133 6.422 18.307-8.082.258 6.487c-.13.129-.258.322-.258.515v40.353c0 .387.258.645.645.645H32.81c.387 0 .645-.258.645-.645V7.002a.585.585 0 0 0-.194-.45Zm-1.096 40.16H1.29V7.325c16.18-12.828 29.072-1.676 30.877 0V46.71Z" fill="#212B31"/><path d="M33.262 6.551C33.133 6.422 18.307-8.082.258 6.487c-.13.129-.258.322-.258.515v40.353c0 .387.258.645.645.645H32.81c.387 0 .645-.258.645-.645V7.002a.585.585 0 0 0-.194-.45Zm-1.096 40.16H1.29V7.325c16.18-12.828 29.072-1.676 30.877 0V46.71Z" stroke="#212B31"/></svg>
